X: 7
T: Bartholomew Fair
%C: Mr. Gray
%R: reel
B: Mr. Gray "24 Country Dances for the Year 1803" p.4 #1
S: http://imslp.org/wiki/24_Country_Dances_for_the_Year_1803_(Various)  2013-12-2
Z: 2013 John Chambers <jc:trillian.mit.edu>
M: 2/4
L: 1/16
K: C
|:\
cege cfaf | gedc BGAB |\
cege cfaf | edcB c2c2 :|
|:\
d3e dBfd | ecge dBAG |\
d3e dBfd | egBd c2c2 :|
% - - - - - - - - - - - - - - - - - - - - - - - - -
%%begintext align
%% 1st Lady set to the 2d Gen: & turn the
%% 3d lead down the middle, up again, &
%% Allemand.
%%endtext
